24x24/apps/io.github.trytonvanmeer.DungeonJournal.svg

<svg height="24" width="24" xmlns="http://www.w3.org/2000/svg"><g transform="translate(1 1)"><path d="m4.09 1.5c-.602 0-1.09.478-1.09 1.071v17.859c0 .593.487 1.071 1.09 1.071h13.82c.603 0 1.09-.478 1.09-1.071v-17.86c0-.593-.487-1.071-1.09-1.071z" opacity=".2"/><path d="m4.09 1c-.602 0-1.09.478-1.09 1.071v17.859c0 .592.487 1.07 1.09 1.07h13.82c.603 0 1.09-.478 1.09-1.071v-17.859c0-.592-.487-1.07-1.09-1.07z" fill="#d81921"/><path d="m4.09 1c-.602 0-1.09.478-1.09 1.071v17.859c0 .592.487 1.07 1.09 1.07h1.91v-20z" opacity=".2"/><path d="m4.09 1c-.603 0-1.09.478-1.09 1.071v.5c0-.593.486-1.071 1.09-1.071h13.82c.604 0 1.09.478 1.09 1.071v-.5c0-.593-.486-1.071-1.09-1.071z" fill="#f4f4f7" opacity=".2"/></g></svg>

<svg width="24" height="24" xmlns="http://www.w3.org/2000/svg"><path d="M4.09 1.5C3.488 1.5 3 1.978 3 2.571V20.43c0 .593.487 1.071 1.09 1.071h13.82c.603 0 1.09-.478 1.09-1.071V2.57c0-.593-.487-1.071-1.09-1.071z" style="opacity:.2" transform="translate(1 1)"/><path d="M4.09 1C3.488 1 3 1.478 3 2.071V19.93C3 20.522 3.487 21 4.09 21h13.82c.603 0 1.09-.478 1.09-1.071V2.07C19 1.478 18.513 1 17.91 1z" style="fill:#d81921" transform="translate(1 1)"/><path d="M4.09 1C3.488 1 3 1.478 3 2.071V19.93C3 20.522 3.487 21 4.09 21H6V1z" style="opacity:.2" transform="translate(1 1)"/><path d="M4.09 1C3.487 1 3 1.478 3 2.071v.5C3 1.978 3.486 1.5 4.09 1.5h13.82c.604 0 1.09.478 1.09 1.071v-.5C19 1.478 18.514 1 17.91 1z" style="fill:#f4f4f7;opacity:.2" transform="translate(1 1)"/></svg>
